!!!AGN: Motet
!!!SCT: Sherr (1990)
!!!voices: 4
!!!COM: Jachet of Mantua
!!!OTL: Ecclesiam tuam Deus (BolC Q19)
**kern	**kern	**kern	**kern
*part4	*part3	*part2	*part1
*staff4	*staff3	*staff2	*staff1
*I"Bassus	*I"Tenor	*I"Altus	*I"Superius
*I'B	*I'T	*I'A	*I'S
*clefF4	*clefGv2	*clefGv2	*clefG2
*k[b-]	*k[b-]	*k[b-]	*k[b-]
*F:	*F:	*F:	*F:
*M2/1	*M2/1	*M2/1	*M2/1
*met(C|)	*met(C|)	*met(C|)	*met(C|)
!!section: Prima pars: Ecclesiam tuam Deus
!!!OMD: Prima pars: Ecclesiam tuam Deus
0F	0F	0c	0f
=1	=1	=1	=1
1F	1c	1f	1a
1BB-y	1d	1f	1b-y
=2	=2	=2	=2
0C	0c	0e	0g
=3	=3	=3	=3
1F	1c	1f	1a
1F	2c	1f	1a
.	[2c	.	.
=4	=4	=4	=4
0G	2c]	0d	0g
.	4B-y	.	.
.	4A	.	.
.	1B-y	.	.
=5	=5	=5	=5
0C	0G	0c	0e
=6	=6	=6	=6
1r	1r	1r	1r
[1C	[1G	[1c	[1e
=7	=7	=7	=7
1C]	1G]	1c]	1e]
1D	1F	1A	1f
=8	=8	=8	=8
1GG	0G	1B-y	1d
1C	.	[1c	2.e
.	.	.	4f
=9	=9	=9	=9
1.C	2.E	1c]	1.g
.	4F	.	.
.	2G	1r	.
2AA	2A	.	2c
=10	=10	=10	=10
1BB-y	2G	1B-y	1d
.	1F	.	.
1C	.	1G	1c
.	2E	.	.
=11	=11	=11	=11
[0FF	1F	1A	0c
.	2r	[1A	.
.	2C	.	.
=12	=12	=12	=12
0FF]	2D	1A]	2r
.	2C	.	2c
.	[1F	2r	2d
.	.	2c	2c
=13	=13	=13	=13
0r	2F]	2d	2.f
.	2F	2c	.
.	.	.	4e
.	1F	2.f	2d
.	.	.	2c
.	.	4e	.
=14	=14	=14	=14
2r	0r	2d	2f
2C	.	2c	2e
2D	.	2B-y	2r
2C	.	4A	2c
.	.	4G	.
=15	=15	=15	=15
2.F	1r	2A	2d
.	.	1c	2c
4E	.	.	.
1D	2r	.	1f
.	2F	2BnXi	.
=16	=16	=16	=16
2C	2G	2c	2e
1D	2F	2.f	1a
.	2.B-y	.	.
.	.	4e	.
2BB-y	.	2d	4g
.	4A	.	4f
=17	=17	=17	=17
2C	2G	2c	2e
2D	2F	2B-y	1f
1C	1G	2.c	.
.	.	.	2e
.	.	4B-y	.
=18	=18	=18	=18
2r	1F	4A	1f
.	.	4G	.
2F	.	1A	.
2F	2r	.	1r
2E	2c	2G	.
=19	=19	=19	=19
2F	2.c	2A	1r
4E	.	4G	.
4D	4B-y	4F	.
1C	2c	1G	2r
.	4B-y	.	2cc
.	4A	.	.
=20	=20	=20	=20
0r	1G	1r	2cc
.	.	.	2b-y
.	4F	2r	2cc
.	4G	.	.
.	4A	2f	4b-y
.	4B-y	.	4a
=21	=21	=21	=21
0r	1c	2f	1g
.	.	2e	.
.	1r	2f	[1cc
.	.	4e	.
.	.	4d	.
=22	=22	=22	=22
0r	0r	1c	2cc]
.	.	.	2b-y
.	.	[1f	2a
.	.	.	2g
=23	=23	=23	=23
0r	0r	2f]	1.f
.	.	2e	.
.	.	2d	.
.	.	2c	2e
=24	=24	=24	=24
0r	2r	2B-y	1d
.	2F	2A	.
.	2F	1G	[1c
.	2E	.	.
=25	=25	=25	=25
2r	2F	4F	0c]
.	.	4G	.
2F	4E	4A	.
.	4D	4F	.
2F	1C	1G	.
2E	.	.	.
=26	=26	=26	=26
2F	1.c	2A	0r
4E	.	4G	.
4D	.	4F	.
1C	.	1G	.
.	2B-y	.	.
=27	=27	=27	=27
1.c	2A	0r	0r
.	2G	.	.
.	[1F	.	.
2B-y	.	.	.
=28	=28	=28	=28
2A	2F]	1r	0r
2G	2G	.	.
[1F	2A	[1c	.
.	4F	.	.
.	4G	.	.
=29	=29	=29	=29
2F]	4A	1c]	0r
.	4B-y	.	.
2E	2c	.	.
1D	4B-y	1d	.
.	4A	.	.
.	4G	.	.
.	4F	.	.
=30	=30	=30	=30
1C	1G	1e	0r
1r	[1F	[1f	.
=31	=31	=31	=31
0r	1F]	2f]	0f
.	.	2e	.
.	1r	2d	.
.	.	2d	.
=32	=32	=32	=32
0r	0r	1.c	1g
.	.	.	1a
.	.	4B-y	.
.	.	4A	.
=33	=33	=33	=33
0r	0r	4G	1.b-y
.	.	4A	.
.	.	4B-y	.
.	.	4c	.
.	.	4d	.
.	.	4e	.
.	.	[2f	2a
=34	=34	=34	=34
0r	0r	2f]	2g
.	.	2e	2g
.	.	1f	[1f
=35	=35	=35	=35
0r	0r	1.F	2f]
.	.	.	4e
.	.	.	4d
.	.	.	1c
.	.	2G	.
=36	=36	=36	=36
0r	0r	2A	2c
.	.	2B-y	2d
.	.	2c	2e
.	.	2A	2f
=37	=37	=37	=37
0r	0r	2B-y	2g
.	.	2c	2e
.	.	2d	2f
.	.	2e	2g
=38	=38	=38	=38
0r	0r	1.f	2a
.	.	.	2b-y
.	.	.	[1cc
.	.	4e	.
.	.	4d	.
=39	=39	=39	=39
0r	0r	1c	2cc]
.	.	.	4b-y
.	.	.	4a
.	.	2r	1g
.	.	[2g	.
=40	=40	=40	=40
0r	0r	2g]	2r
.	.	2f	1cc
.	.	2e	.
.	.	[2g	2b-y
=41	=41	=41	=41
0r	0r	2g]	2.a
.	.	2f	.
.	.	.	8gL
.	.	.	8fJ
.	.	2.e	2g
.	.	.	2cc
.	.	8dL	.
.	.	8cJ	.
=42	=42	=42	=42
1r	0r	4d	4b-y
.	.	4c	4a
.	.	1f	4g
.	.	.	4f
[1C	.	.	[1g
.	.	4e	.
.	.	4d	.
=43	=43	=43	=43
1C]	0r	2e	2g]
.	.	1A	2e
1D	.	.	1f
.	.	[2B-y	.
=44	=44	=44	=44
1E	0r	2B-]	1g
.	.	1c	.
[1F	.	.	[1a
.	.	[2d	.
=45	=45	=45	=45
2F]	0F	4d]	2a]
.	.	4c	.
2E	.	1c	2g
2D	.	.	1f
2D	.	2BnXi	.
=46	=46	=46	=46
1.C	1G	0c	0e
.	1A	.	.
4BB-y	.	.	.
4AA	.	.	.
=47	=47	=47	=47
4GG	1.B-y	0r	0r
4AA	.	.	.
4BB-y	.	.	.
4C	.	.	.
4D	.	.	.
4E	.	.	.
[2F	2A	.	.
=48	=48	=48	=48
2F]	2G	0r	0r
2E	2G	.	.
1F	[1F	.	.
=49	=49	=49	=49
1.FF	2F]	0r	0r
.	4E	.	.
.	4D	.	.
.	1C	.	.
2GG	.	.	.
=50	=50	=50	=50
2AA	2C	0r	0r
2BB-y	2D	.	.
2C	2E	.	.
2AA	2F	.	.
=51	=51	=51	=51
2BB-y	2G	0r	0r
2C	2E	.	.
2D	2F	.	.
2E	2G	.	.
=52	=52	=52	=52
1.F	2A	0r	0r
.	2B-y	.	.
.	[1c	.	.
4E	.	.	.
4D	.	.	.
=53	=53	=53	=53
1C	2c]	0r	0r
.	4B-y	.	.
.	4A	.	.
2r	1G	.	.
[2G	.	.	.
=54	=54	=54	=54
2G]	2r	0r	0r
2F	1c	.	.
2E	.	.	.
[2G	2B-y	.	.
=55	=55	=55	=55
2G]	2.A	0r	0r
2F	.	.	.
.	8GL	.	.
.	8FJ	.	.
2.E	2G	.	.
.	2c	.	.
8DL	.	.	.
8CJ	.	.	.
=56	=56	=56	=56
4D	4B-y	2r	1r
4C	4A	.	.
2F	4G	1c	.
.	4F	.	.
2E	1G	.	2r
2G	.	2B-y	[2g
=57	=57	=57	=57
2D	2r	2.A	2g]
2F	2.c	.	2f
.	.	8GL	.
.	.	8FJ	.
2C	.	2G	2.e
.	4B-y	.	.
2E	2G	[2c	.
.	.	.	8dL
.	.	.	8cJ
=58	=58	=58	=58
1D	2A	2c]	4d
.	.	.	4c
.	2B-y	2BnXi	1f
1C	1G	1c	.
.	.	.	2e
=59	=59	=59	=59
*M3/1	*M3/1	*M3/1	*M3/1
*met(C|3)	*met(C|3)	*met(C|3)	*met(C|3)
0FF	0F	0c	0f
1F	1c	1A	1f
=60	=60	=60	=60
0F	0c	0A	0f
1C	1c	1G	1g
=61	=61	=61	=61
1F	1A	1F	1a
0BB-y	0d	0f	0b-y
=62	=62	=62	=62
1F	1c	1f	1.a
0G	0B-y	0d	.
.	.	.	4g
.	.	.	4f
.	.	.	1g
=63	=63	=63	=63
0D	0A	0d	0a
1D	1F	1A	1d
=64	=64	=64	=64
0C	0G	0c	0e
[1D	[1F	1B-y	[1f
=65	=65	=65	=65
1D]	1F]	1A	1f]
0GG	0G	0B-y	0d
=66	=66	=66	=66
0AA	1E	1A	1c
.	0A	1E	1e
[1D	.	2F	1d
.	.	2G	.
=67	=67	=67	=67
1D]	1F	2A	1.f
.	.	2B-y	.
0C	0G	0c	.
.	.	.	4e
.	.	.	4d
.	.	.	1e
=68	=68	=68	=68
*M2/1	*M2/1	*M2/1	*M2/1
*met(C|)	*met(C|)	*met(C|)	*met(C|)
0FF	[0F	0A	1f
.	.	.	1r
=69	=69	=69	=69
0r	1F]	1r	2c
.	.	.	2d
.	1r	2G	2e
.	.	2A	2f
=70	=70	=70	=70
2r	1r	2B-y	2d
2C	.	2c	2c
2D	2r	2A	1r
2E	2G	2G	.
=71	=71	=71	=71
2F	2A	1r	2c
2D	2B-y	.	2d
2C	2c	2r	2e
2r	2A	2c	2f
=72	=72	=72	=72
1r	2G	2d	2d
.	2r	2e	2c
2F	1r	2f	1r
2G	.	2d	.
=73	=73	=73	=73
2A	2c	2c	2r
2B-y	2d	1r	2f
2G	2e	.	2g
2F	2f	2c	2a
=74	=74	=74	=74
2r	2d	2d	2b-y
2C	2c	2e	2g
1F	2r	1f	2f
.	[2c	.	2a
=75	=75	=75	=75
1G	2c]	1d	1g
.	2BnXi	.	.
2C	1c	1c	1e
2C	.	.	.
=76	=76	=76	=76
2D	2F	2r	1r
2E	2G	1c	.
2F	2A	.	2c
2D	2B-y	2B-y	2d
=77	=77	=77	=77
2C	2G	2c	2e
2D	2F	2B-y	1f
1C	1G	1c	.
.	.	.	2e
=78	=78	=78	=78
0FF	[0F	0A	1f
.	.	.	1r
=79	=79	=79	=79
0r	1F]	1r	2c
.	.	.	2d
.	1r	2G	2e
.	.	2A	2f
=80	=80	=80	=80
2r	1r	2B-y	2d
2C	.	2c	2c
2D	2r	2A	1r
2E	2G	2G	.
=81	=81	=81	=81
2F	2A	1r	2c
2D	2B-y	.	2d
2C	2c	2r	2e
2r	2A	2c	2f
=82	=82	=82	=82
1r	2G	2d	2d
.	2r	2e	2c
2F	1r	2f	1r
2G	.	2d	.
=83	=83	=83	=83
2A	2c	2c	2r
2B-y	2d	1r	2f
2G	2e	.	2g
2F	2f	2c	2a
=84	=84	=84	=84
2r	2d	2d	2b-y
2C	2c	2e	2g
1F	2r	1f	2f
.	[2c	.	2a
=85	=85	=85	=85
1G	2c]	1d	1g
.	2BnXi	.	.
2C	1c	1c	1e
2C	.	.	.
=86	=86	=86	=86
2D	2F	2r	1r
2E	2G	1c	.
2F	2A	.	2c
2D	2B-y	2B-y	2d
=87	=87	=87	=87
2C	2G	2c	2e
2D	2F	2B-y	1f
1C	1G	1c	.
.	.	.	2e
=88	=88	=88	=88
0FF	0F	0A	2f
.	.	.	2.a
.	.	.	4g
.	.	.	2f
=89	=89	=89	=89
0C;	0G;	0c;	0e;
=90	=90	=90	=90
00FFl	00Fl	00cl	00fl
==	==	==	==
*-	*-	*-	*-
!!!system-decoration: [*]
!!!RDF**kern: i = editorial accidental
!!!RDF**kern: l = terminal long
!!!ENC: Benjamin Ory
!!!END: 2022/2/10
!!!EED: Benjamin Ory
!!!EEV: 2022/02/10
!!!YEC: Copyright 2022 Benjamin Ory, All Rights Reserved
!!!ONB: Translated from MusicXML on 2022/02/10